X:100
T:score187
L:1/16
Q:1/4=96
M:4/4
I:linebreak $
K:C
 E8 (DEDE) .F2.E2 | .D4 .G4 z8 | F8 (EFEF) .G2.F2 |$ .E4 .c4 z8 | c8 (BcBc) .d2.B2 | %5
 G4 c4 (BcBc) .d2.B2 |$ (G4 c4 D4 A4) | (D4 G4 E4) z4 | z4 (G8 F4) | E4 (G8 F4) |$ E4 z4 A4 z4 | %11
 G4 z4 B,4 z4 | C z z2 z4 z8 |] %13
